svg/tree.svg

<?xml version="1.0" encoding="UTF-8"?>
<svg xmlns="http://www.w3.org/2000/svg" xmlns:xlink="http://www.w3.org/1999/xlink" width="32" height="32" viewBox="0 0 32 32">
<path fill-rule="nonzero" fill="rgb(0%, 0%, 0%)" fill-opacity="1" d="M 3.199219 1.921875 C 2.140625 1.925781 1.285156 2.78125 1.28125 3.839844 L 1.28125 11.519531 C 1.285156 12.578125 2.140625 13.433594 3.199219 13.441406 L 10.878906 13.441406 C 11.933594 13.425781 12.789062 12.574219 12.800781 11.519531 L 12.800781 3.839844 C 12.792969 2.78125 11.9375 1.925781 10.878906 1.921875 Z M 3.199219 3.199219 L 10.878906 3.199219 C 11.242188 3.199219 11.519531 3.476562 11.519531 3.839844 L 11.519531 11.519531 C 11.523438 11.691406 11.457031 11.855469 11.335938 11.976562 C 11.214844 12.097656 11.050781 12.164062 10.878906 12.160156 L 3.199219 12.160156 C 3.027344 12.164062 2.863281 12.097656 2.742188 11.976562 C 2.621094 11.855469 2.554688 11.691406 2.558594 11.519531 L 2.558594 3.839844 C 2.558594 3.476562 2.839844 3.199219 3.199219 3.199219 M 7.039062 14.71875 C 6.78125 14.71875 6.542969 14.875 6.445312 15.113281 C 6.347656 15.351562 6.40625 15.628906 6.585938 15.808594 C 6.769531 15.992188 7.046875 16.050781 7.285156 15.953125 C 7.5625 15.832031 7.71875 15.535156 7.660156 15.238281 C 7.597656 14.941406 7.339844 14.722656 7.039062 14.71875 M 7.039062 17.28125 C 6.683594 17.28125 6.394531 17.570312 6.398438 17.925781 C 6.398438 18.28125 6.6875 18.570312 7.039062 18.566406 C 7.394531 18.566406 7.683594 18.277344 7.683594 17.921875 C 7.683594 17.566406 7.394531 17.28125 7.039062 17.28125 M 21.121094 18.558594 C 20.0625 18.566406 19.207031 19.421875 19.199219 20.480469 L 19.199219 28.160156 C 19.207031 29.21875 20.0625 30.074219 21.121094 30.078125 L 28.800781 30.078125 C 29.859375 30.074219 30.714844 29.21875 30.71875 28.160156 L 30.71875 20.480469 C 30.714844 19.421875 29.859375 18.566406 28.800781 18.558594 Z M 7.039062 19.839844 C 6.871094 19.839844 6.707031 19.90625 6.585938 20.027344 C 6.46875 20.148438 6.398438 20.308594 6.398438 20.480469 C 6.398438 20.835938 6.683594 21.121094 7.039062 21.121094 C 7.382812 21.109375 7.65625 20.824219 7.65625 20.480469 C 7.65625 20.136719 7.382812 19.855469 7.039062 19.839844 M 21.121094 19.839844 L 28.800781 19.839844 C 29.164062 19.839844 29.441406 20.117188 29.441406 20.480469 L 29.441406 28.160156 C 29.445312 28.332031 29.378906 28.496094 29.257812 28.617188 C 29.136719 28.738281 28.972656 28.804688 28.800781 28.800781 L 21.121094 28.800781 C 20.953125 28.804688 20.789062 28.738281 20.667969 28.617188 C 20.546875 28.496094 20.480469 28.332031 20.480469 28.160156 L 20.480469 20.480469 C 20.480469 20.117188 20.757812 19.839844 21.121094 19.839844 M 7.039062 22.398438 C 6.804688 22.386719 6.578125 22.507812 6.457031 22.710938 C 6.3125 22.957031 6.347656 23.273438 6.546875 23.480469 C 6.746094 23.691406 7.058594 23.738281 7.3125 23.601562 C 7.570312 23.46875 7.699219 23.179688 7.632812 22.898438 C 7.574219 22.613281 7.328125 22.410156 7.039062 22.398438 M 7.039062 24.960938 C 6.6875 24.964844 6.40625 25.25 6.398438 25.601562 C 6.398438 25.859375 6.554688 26.09375 6.796875 26.195312 C 7.035156 26.292969 7.3125 26.238281 7.492188 26.054688 C 7.675781 25.871094 7.734375 25.597656 7.632812 25.355469 C 7.535156 25.117188 7.300781 24.960938 7.039062 24.960938 M 9.601562 24.960938 C 9.367188 24.953125 9.148438 25.070312 9.027344 25.273438 C 8.90625 25.472656 8.90625 25.722656 9.023438 25.925781 C 9.144531 26.125 9.363281 26.246094 9.597656 26.238281 C 9.769531 26.238281 9.933594 26.171875 10.050781 26.050781 C 10.171875 25.933594 10.238281 25.769531 10.238281 25.601562 C 10.242188 25.429688 10.171875 25.269531 10.054688 25.148438 C 9.933594 25.027344 9.773438 24.960938 9.601562 24.960938 M 12.160156 24.960938 C 11.929688 24.953125 11.707031 25.074219 11.585938 25.273438 C 11.464844 25.472656 11.464844 25.726562 11.585938 25.925781 C 11.707031 26.128906 11.925781 26.25 12.160156 26.238281 C 12.511719 26.238281 12.796875 25.953125 12.800781 25.601562 C 12.800781 25.433594 12.734375 25.269531 12.613281 25.148438 C 12.492188 25.027344 12.332031 24.960938 12.160156 24.960938 M 14.71875 24.960938 C 14.367188 24.964844 14.085938 25.25 14.082031 25.601562 C 14.082031 25.859375 14.234375 26.09375 14.476562 26.191406 C 14.71875 26.292969 14.996094 26.238281 15.179688 26.054688 C 15.363281 25.871094 15.417969 25.59375 15.3125 25.355469 C 15.214844 25.117188 14.980469 24.960938 14.71875 24.960938 M 17.28125 24.960938 C 17.046875 24.953125 16.828125 25.074219 16.707031 25.273438 C 16.585938 25.472656 16.585938 25.726562 16.707031 25.925781 C 16.828125 26.128906 17.046875 26.25 17.28125 26.238281 C 17.632812 26.234375 17.917969 25.953125 17.921875 25.601562 C 17.921875 25.433594 17.855469 25.269531 17.734375 25.148438 C 17.613281 25.027344 17.453125 24.960938 17.28125 24.960938 M 17.28125 24.960938 "/>
</svg>

<svg role="img" viewBox="0 0 32 32" xmlns="http://www.w3.org/2000/svg"><path d="M3.2 1.922A1.924 1.924 0 0 0 1.28 3.84v7.68a1.93 1.93 0 0 0 1.92 1.92h7.68a1.94 1.94 0 0 0 1.92-1.92V3.84a1.93 1.93 0 0 0-1.922-1.918Zm0 1.277h7.679c.363 0 .64.278.64.64v7.68a.625.625 0 0 1-.64.641h-7.68a.625.625 0 0 1-.64-.64V3.84c0-.363.28-.64.64-.64m3.84 11.519a.64.64 0 0 0-.594.394.644.644 0 0 0 .84.84.644.644 0 0 0-.246-1.234m0 2.562a.642.642 0 1 0 0 1.284.642.642 0 0 0 0-1.284m14.082 1.278A1.936 1.936 0 0 0 19.2 20.48v7.68a1.93 1.93 0 0 0 1.922 1.918h7.68a1.926 1.926 0 0 0 1.918-1.918v-7.68a1.93 1.93 0 0 0-1.92-1.92ZM7.04 19.839a.642.642 0 1 0 0 1.284.642.642 0 0 0 0-1.283m14.082 0h7.68c.363 0 .64.277.64.64v7.68a.625.625 0 0 1-.64.64h-7.68a.62.62 0 0 1-.453-.183.64.64 0 0 1-.188-.457v-7.68c0-.363.278-.64.641-.64M7.04 22.398a.64.64 0 0 0-.582.313.64.64 0 0 0 .09.77c.2.21.512.257.766.12a.634.634 0 0 0 .32-.703.636.636 0 0 0-.594-.5m0 2.563a.65.65 0 0 0-.64.64c0 .258.156.493.398.594a.64.64 0 0 0 .695-.14.64.64 0 0 0-.453-1.094m2.563 0a.64.64 0 0 0-.575.312.64.64 0 0 0-.004.653.65.65 0 0 0 .575.312.64.64 0 0 0 .453-.187.63.63 0 0 0 .187-.45.635.635 0 0 0-.636-.64m2.558 0a.65.65 0 0 0-.574.312.63.63 0 0 0 0 .653c.121.203.34.324.574.312a.643.643 0 0 0 .64-.636.64.64 0 0 0-.64-.641m2.559 0a.643.643 0 0 0-.637.64c0 .258.152.493.395.59a.637.637 0 0 0 .835-.836.64.64 0 0 0-.593-.394m2.562 0a.65.65 0 0 0-.574.312.63.63 0 0 0 0 .653c.121.203.34.324.574.312a.645.645 0 0 0 .64-.636.64.64 0 0 0-.64-.641m0 0"/></svg>
